icons/travel.svg

<svg width="48" height="48" viewBox="0 0 48 48" fill="none" xmlns="http://www.w3.org/2000/svg">
<path fill-rule="evenodd" clip-rule="evenodd" d="M23.9999 6C19.4999 6 16.9999 7.2 16.9999 7.2V12L13.4712 15.5288C12.8783 16.1217 13.2349 17.1168 14.0713 17.1765C16.0883 17.3204 19.5054 17.5 24 17.5C26.2055 17.5 28.1516 17.4568 29.8001 17.3957L29.7833 17.3963C29.9245 17.9068 30 18.4446 30 19C30 22.3137 27.3137 25 24 25C20.6863 25 18 22.3137 18 19C18 18.4446 18.0755 17.9068 18.2167 17.3963C17.4768 17.369 16.7967 17.3381 16.1797 17.3059C16.062 17.852 16 18.4187 16 19C16 23.4183 19.5817 27 24 27C28.4183 27 32 23.4183 32 19C32 18.4187 31.938 17.852 31.8203 17.3059C32.6363 17.2633 33.3417 17.2184 33.9286 17.1765C34.765 17.1168 35.1216 16.1217 34.5287 15.5288L30.9999 12V7.2C30.9999 7.2 28.4999 6 23.9999 6ZM18.9999 12.8284L16.5082 15.3201C18.4382 15.4174 20.9695 15.5 24 15.5C27.0304 15.5 29.5617 15.4174 31.4917 15.3201L28.9999 12.8284V8.61908C28.9049 8.59275 28.804 8.56598 28.6976 8.53908C27.6562 8.27599 26.0709 8 23.9999 8C21.929 8 20.3437 8.27599 19.3023 8.53908C19.1958 8.56598 19.095 8.59275 18.9999 8.61908V12.8284ZM30.1483 9.00959L30.1472 9.00907L30.1483 9.00959ZM30.1472 9.00907L30.1458 9.00843L30.1472 9.00907Z" fill="black"/>
<path fill-rule="evenodd" clip-rule="evenodd" d="M24.2881 28.0424L30.83 29.9894L36.4374 26.1733C36.7437 25.9648 37.1401 25.9428 37.4676 26.1161C37.7951 26.2893 38 26.6295 38 27V32H36V28.8902L32 31.6124V40C32 40.7684 32.2889 41.4692 32.7639 42H15.2361C15.7111 41.4692 16 40.7684 16 40V31.5352L12 28.8685V32H10V27C10 26.6312 10.203 26.2923 10.5281 26.1183C10.8533 25.9443 11.2478 25.9634 11.5547 26.168L17.2508 29.9653L23.7119 28.0424C23.7254 28.0383 23.7389 28.0346 23.7525 28.0311C23.8342 28.0102 23.9173 28 24 28C24.0827 28 24.1658 28.0102 24.2475 28.0311C24.25 28.0318 24.2526 28.0324 24.2551 28.0331C24.2662 28.036 24.2772 28.0391 24.2881 28.0424ZM25 30.341L30 31.8291V40H25V30.341ZM18 31.8291L23 30.341V40H18V31.8291Z" fill="black"/>
<path fill-rule="evenodd" clip-rule="evenodd" d="M9 36C8.44772 36 8 36.4477 8 37V40H11C11.5523 40 12 39.5523 12 39V37C12 36.4477 11.5523 36 11 36H9ZM6 37C6 35.3431 7.34315 34 9 34H11C12.6569 34 14 35.3431 14 37V39C14 40.6569 12.6569 42 11 42H6V37Z" fill="black"/>
<path fill-rule="evenodd" clip-rule="evenodd" d="M39 36C39.5523 36 40 36.4477 40 37V40H37C36.4477 40 36 39.5523 36 39V37C36 36.4477 36.4477 36 37 36H39ZM42 37C42 35.3431 40.6569 34 39 34H37C35.3431 34 34 35.3431 34 37V39C34 40.6569 35.3431 42 37 42H42V37Z" fill="black"/>
</svg>

<svg
  xmlns="http://www.w3.org/2000/svg"
  width="24"
  height="24"
  viewBox="0 0 24 24"
  fill="none"
  stroke="currentColor"
  stroke-width="2"
  stroke-linecap="round"
  stroke-linejoin="round"
>
  <path
    fill-rule="evenodd"
    d="M24 6c-4.5 0-7 1.2-7 1.2V12l-3.529 3.529c-.593.593-.236 1.588.6 1.648 2.017.143 5.434.323 9.929.323 2.206 0 4.152-.043 5.8-.104h-.017a6 6 0 1 1-11.567 0q-1.111-.041-2.036-.09a8 8 0 1 0 15.64 0c.816-.043 1.522-.088 2.109-.13.836-.06 1.193-1.054.6-1.647L30.999 12V7.2S28.5 6 24 6m-5 6.828-2.492 2.492c1.93.097 4.462.18 7.492.18s5.562-.083 7.492-.18L29 12.828V8.62l-.302-.08C27.656 8.276 26.07 8 24 8s-3.656.276-4.698.54q-.16.04-.302.08zM30.148 9.01l-.002-.002z"
    clip-rule="evenodd"
  />
  <path
    fill-rule="evenodd"
    d="m24.288 28.042 6.542 1.947 5.607-3.816A1 1 0 0 1 38 27v5h-2v-3.11l-4 2.722V40c0 .768.289 1.47.764 2H15.236c.475-.53.764-1.232.764-2v-8.465l-4-2.666V32h-2v-5a1 1 0 0 1 1.555-.832l5.696 3.797 6.46-1.923A1 1 0 0 1 24 28q.125 0 .247.031l.008.002zM25 30.341l5 1.488V40h-5zm-7 1.488 5-1.488V40h-5z"
    clip-rule="evenodd"
  />
  <path
    fill-rule="evenodd"
    d="M9 36a1 1 0 0 0-1 1v3h3a1 1 0 0 0 1-1v-2a1 1 0 0 0-1-1zm-3 1a3 3 0 0 1 3-3h2a3 3 0 0 1 3 3v2a3 3 0 0 1-3 3H6z"
    clip-rule="evenodd"
  />
  <path
    fill-rule="evenodd"
    d="M39 36a1 1 0 0 1 1 1v3h-3a1 1 0 0 1-1-1v-2a1 1 0 0 1 1-1zm3 1a3 3 0 0 0-3-3h-2a3 3 0 0 0-3 3v2a3 3 0 0 0 3 3h5z"
    clip-rule="evenodd"
  />
</svg>
